static/assets/images/networks/vai.svg

<svg width="256" height="256" viewBox="0 0 256 256" fill="none" xmlns="http://www.w3.org/2000/svg">
<path d="M256 128C256 57.3076 198.692 0 128 0C57.3076 0 0 57.3076 0 128C0 198.692 57.3076 256 128 256C198.692 256 256 198.692 256 128Z" fill="#FF0030"/>
<path d="M160.59 153.961H95.3403L118.601 113.681L102.79 86.3104L47.9304 181.331H208.01L127.961 42.7005L112.161 70.0704L160.59 153.961Z" fill="white"/>
</svg>

<svg xmlns="http://www.w3.org/2000/svg" fill="none" viewBox="0 0 256 256"><path fill="#FF0030" d="M256 128C256 57.308 198.692 0 128 0S0 57.308 0 128s57.308 128 128 128 128-57.308 128-128"/><path fill="#fff" d="M160.59 153.961H95.34l23.261-40.28-15.811-27.37-54.86 95.02h160.08l-80.049-138.63-15.8 27.37z"/></svg>
